icons/action/icon_camera_m_white.svg

<svg width="24" height="24" viewBox="0 0 24 24" xmlns="http://www.w3.org/2000/svg"><g fill="none" fill-rule="evenodd"><path d="M0 0h24v24H0z"/><path d="M0 0h24v24H0z"/><path d="M22.897 21.573c.268-.181.495-.408.675-.675.28-.414.428-.897.428-1.398v-13a2.486 2.486 0 0 0-1.102-2.072A2.477 2.477 0 0 0 21.5 4H9V2H3v2h-.5A2.503 2.503 0 0 0 0 6.5v13C0 20.879 1.122 22 2.5 22h19c.501 0 .984-.147 1.397-.427zM1 19.5v-13C1 5.673 1.673 5 2.5 5H4V3h4v2h13.5c.3 0 .59.089.838.256v.001A1.486 1.486 0 0 1 23 6.5v13a1.491 1.491 0 0 1-.661 1.244A1.502 1.502 0 0 1 21.5 21h-19c-.827 0-1.5-.673-1.5-1.5z" fill="#FFF"/><path d="M16 8c-2.757 0-5 2.243-5 5s2.243 5 5 5 5-2.243 5-5-2.243-5-5-5zm0 8c-1.654 0-3-1.346-3-3s1.346-3 3-3 3 1.346 3 3-1.346 3-3 3zM4 9h5v3H4z" fill="#FFF" opacity=".3"/></g></svg>

<?xml version="1.0" encoding="UTF-8"?>
<svg width="24px" height="24px" viewBox="0 0 24 24" version="1.1" xmlns="http://www.w3.org/2000/svg" xmlns:xlink="http://www.w3.org/1999/xlink">
    <!-- Generator: Sketch 48.2 (47327) - http://www.bohemiancoding.com/sketch -->
    <title>icon_camera__m__white</title>
    <desc>Created with Sketch.</desc>
    <defs></defs>
    <g id="set" stroke="none" stroke-width="1" fill="none" fill-rule="evenodd">
        <g id="icon_camera__m__white">
            <rect id="_ph_" x="0" y="0" width="24" height="24"></rect>
            <g id="icon_action_photo__m__white">
                <g id="art">
                    <g id="a1" opacity="0.4"></g>
                    <rect id="Rectangle-path" x="0" y="0" width="24" height="24"></rect>
                    <path d="M22.897,21.573 C23.165,21.392 23.392,21.165 23.572,20.898 C23.852,20.484 24,20.001 24,19.5 L24,6.5 C24,5.999 23.852,5.516 23.573,5.103 C23.393,4.835 23.166,4.608 22.898,4.428 C22.484,4.147 22.001,4 21.5,4 L9,4 L9,2 L3,2 L3,4 L2.5,4 C1.122,4 0,5.121 0,6.5 L0,19.5 C0,20.879 1.122,22 2.5,22 L21.5,22 C22.001,22 22.484,21.853 22.897,21.573 L22.897,21.573 Z M1,19.5 L1,6.5 C1,5.673 1.673,5 2.5,5 L4,5 L4,3 L8,3 L8,5 L21.5,5 C21.8,5 22.09,5.089 22.338,5.256 L22.338,5.257 C22.499,5.364 22.635,5.501 22.744,5.662 C22.912,5.91 23,6.199 23,6.5 L23,19.5 C23,19.801 22.912,20.09 22.744,20.339 C22.636,20.499 22.499,20.636 22.339,20.744 C22.09,20.911 21.8,21 21.5,21 L2.5,21 C1.673,21 1,20.327 1,19.5 L1,19.5 Z" id="Shape" fill="#FFFFFF"></path>
                    <path d="M16,8 C13.243,8 11,10.243 11,13 C11,15.757 13.243,18 16,18 C18.757,18 21,15.757 21,13 C21,10.243 18.757,8 16,8 L16,8 Z M16,16 C14.346,16 13,14.654 13,13 C13,11.346 14.346,10 16,10 C17.654,10 19,11.346 19,13 C19,14.654 17.654,16 16,16 L16,16 Z" id="Shape" fill="#FFFFFF" opacity="0.3"></path>
                    <rect id="Rectangle-path" fill="#FFFFFF" opacity="0.3" x="4" y="9" width="5" height="3"></rect>
                </g>
            </g>
        </g>
    </g>
</svg>
